svg/misc/star.svg

<?xml version="1.0" encoding="UTF-8"?>
<svg xmlns="http://www.w3.org/2000/svg" xmlns:xlink="http://www.w3.org/1999/xlink" width="24" height="24" viewBox="0 0 24 24" version="1.1">
<g id="surface1">
<path style=" stroke:none;fill-rule:evenodd;fill:rgb(0%,0%,0%);fill-opacity:1;" d="M 4.242188 22.046875 C 4.179688 22.335938 4.289062 22.636719 4.523438 22.824219 C 4.757812 23.007812 5.078125 23.042969 5.347656 22.917969 L 11.851562 19.609375 L 18.355469 22.917969 C 18.625 23.042969 18.945312 23.007812 19.179688 22.824219 C 19.414062 22.640625 19.523438 22.339844 19.460938 22.046875 L 18.230469 15.109375 L 23.449219 10.1875 C 23.671875 9.976562 23.757812 9.660156 23.671875 9.363281 C 23.582031 9.070312 23.335938 8.851562 23.03125 8.796875 L 15.773438 7.773438 L 12.535156 1.429688 C 12.410156 1.167969 12.144531 1 11.851562 1 C 11.558594 1 11.289062 1.167969 11.164062 1.429688 L 7.929688 7.777344 L 0.671875 8.796875 C 0.367188 8.851562 0.121094 9.074219 0.03125 9.367188 C -0.0546875 9.660156 0.03125 9.980469 0.253906 10.191406 L 5.472656 15.113281 L 4.242188 22.050781 Z M 4.242188 22.046875 "/>
</g>
</svg>

<?xml version="1.0" encoding="UTF-8"?>
<svg xmlns="http://www.w3.org/2000/svg" xmlns:xlink="http://www.w3.org/1999/xlink" width="24" height="24"
     viewBox="0 0 24 24" version="1.1">
    <defs>
        <style>
            .cls-1 {
            fill: currentColor;
            }
        </style>
    </defs>
    <path class="cls-1" fill-rule="evenodd"
          d="M4.24 22.05a.78.78 0 0 0 1.1.87l6.51-3.31 6.5 3.3a.8.8 0 0 0 .83-.09.78.78 0 0 0 .28-.77l-1.23-6.94 5.22-4.92c.22-.21.3-.53.22-.83a.82.82 0 0 0-.64-.56l-7.26-1.03-3.23-6.34a.76.76 0 0 0-1.37 0L7.92 7.78.67 8.8a.82.82 0 0 0-.64.57c-.08.29 0 .61.22.82l5.22 4.92-1.23 6.94Zm0 0"/>
</svg>
